; generated by Slic3r 1.2.9 on 2016-08-16 at 22:40:45

; external perimeters extrusion width = 0.40mm
; perimeters extrusion width = 0.67mm
; infill extrusion width = 0.67mm
; solid infill extrusion width = 0.67mm
; top infill extrusion width = 0.67mm

M107
M104 S205 ; set temperature
G28 ; home all axes
G1 Z5 F5000 ; lift nozzle
M140 S60 ; set bed temperature

M109 S205 ; wait for temperature to be reached
G21 ; set units to millimeters
G90 ; use absolute coordinates
M82 ; use absolute distances for extrusion
G92 E0
G1 E-2.00000 F2400.00000
G92 E0
G1 Z5.000 F12000.000
G1 X83.438 Y80.623 F12000.000
G1 Z0.200 F12000.000
G1 E2.00000 F2400.00000
G1 X84.186 Y79.934 E2.01328 F1800.000
G1 X84.578 Y79.630 E2.01976
G1 X85.429 Y79.074 E2.03304
G1 X85.864 Y78.838 E2.03951
G1 X86.794 Y78.430 E2.05277
G1 X87.264 Y78.268 E2.05926
G1 X88.248 Y78.019 E2.07252
G1 X88.738 Y77.937 E2.07901
G1 X89.752 Y77.853 E2.09230
G1 X160.248 Y77.853 E3.01306
G1 X161.261 Y77.937 E3.02634
G1 X161.750 Y78.019 E3.03282 F1800.000
G1 X162.735 Y78.268 E3.04608
G1 X163.205 Y78.429 E3.05257
G1 X164.134 Y78.837 E3.06582
G1 X164.571 Y79.074 E3.07232
G1 X165.422 Y79.629 E3.08559
G1 X165.813 Y79.934 E3.09207
G1 X166.562 Y80.623 E3.10536
G1 X166.898 Y80.988 E3.11183
G1 X167.522 Y81.790 E3.12511
G1 X167.795 Y82.208 E3.13163
G1 X168.277 Y83.098 E3.14485
G1 X168.476 Y83.552 E3.15132
G1 X168.806 Y84.515 E3.16462
G1 X168.928 Y84.995 E3.17109
G1 X169.095 Y85.998 E3.18437
G1 X169.157 Y87.000 E3.19748
G1 X169.157 Y113.000 E3.53707
G1 X169.095 Y114.002 E3.55019
G1 X168.928 Y115.005 E3.56347
G1 X168.806 Y115.487 E3.56996
G1 X168.476 Y116.448 E3.58324
G1 X168.276 Y116.903 E3.58973
G1 X167.793 Y117.795 E3.60298
G1 X167.522 Y118.210 E3.60945
G1 X166.898 Y119.012 E3.62273
G1 X166.560 Y119.379 E3.62924
G1 X165.815 Y120.065 E3.64247
G1 X165.422 Y120.371 E3.64896
G1 X164.571 Y120.926 E3.66224
G1 X164.136 Y121.162 E3.66871
G1 X163.205 Y121.571 E3.68199
G1 X162.736 Y121.732 E3.68846
G1 X161.750 Y121.981 E3.70174
G1 X161.262 Y122.063 E3.70821
G1 X160.248 Y122.147 E3.72150
G1 X89.752 Y122.147 E4.64226
G1 X88.738 Y122.063 E4.65554
G1 X88.250 Y121.981 E4.66202
G1 X87.266 Y121.732 E4.67526
G1 X86.795 Y121.571 E4.68177
G1 X85.864 Y121.162 E4.69505
G1 X85.429 Y120.926 E4.70152
G1 X84.578 Y120.370 E4.71479
G1 X84.187 Y120.066 E4.72127
G1 X83.438 Y119.377 E4.73456
G1 X83.102 Y119.012 E4.74103
G1 X82.478 Y118.210 E4.75431
G1 X82.207 Y117.795 E4.76078
G1 X81.724 Y116.902 E4.77405
G1 X81.524 Y116.448 E4.78052
G1 X81.194 Y115.485 E4.79382
G1 X81.072 Y115.005 E4.80029
G1 X80.905 Y114.002 E4.81357
G1 X80.864 Y113.508 E4.82004
G1 X80.843 Y113.000 E4.82668
G1 X80.843 Y87.000 E5.16628
G1 X80.864 Y86.492 E5.17292
G1 X80.905 Y85.994 E5.17944
G1 X81.072 Y84.995 E5.19267
G1 X81.194 Y84.515 E5.19914
G1 X81.524 Y83.552 E5.21244
G1 X81.724 Y83.098 E5.21891
G1 X82.207 Y82.205 E5.23218
G1 X82.478 Y81.790 E5.23866
G1 X83.102 Y80.988 E5.25193
G1 X83.397 Y80.667 E5.25762
G1 E3.25762 F2400.00000
G92 E0
G1 Z5.200 F12000.000
G1 X161.989 Y105.914 F12000.000
G1 Z0.200 F12000.000
G1 E2.00000 F2400.00000
G1 X156.011 Y105.914 E2.07808 F1800.000
G1 X156.011 Y94.086 E2.23258
G1 X161.989 Y94.086 E2.31066
G1 X161.989 Y105.854 E2.46437
G1 X161.832 Y105.757 F12000.000
G1 X156.168 Y105.757 E2.53835 F1800.000
G1 X156.168 Y94.243 E2.68874
G1 X161.832 Y94.243 E2.76272
G1 X161.832 Y105.697 E2.91233
G1 X161.675 Y105.600 F12000.000
G1 X156.325 Y105.600 E2.98220 F1800.000
G1 X156.325 Y94.400 E3.12849
G1 X161.675 Y94.400 E3.19837
G1 X161.675 Y105.540 E3.34387
G1 X161.675 Y106.000 F12000.000
G1 X93.989 Y105.914 F12000.000
G1 X88.011 Y105.914 E3.42195 F1800.000
G1 X88.011 Y94.086 E3.57645
G1 X93.989 Y94.086 E3.65453
G1 X93.989 Y105.854 E3.80824
G1 X93.832 Y105.757 F12000.000
G1 X88.168 Y105.757 E3.88222 F1800.000
G1 X88.168 Y94.243 E4.03261
G1 X93.832 Y94.243 E4.10659
G1 X93.832 Y105.697 E4.25619
G1 X93.675 Y105.600 F12000.000
G1 X88.325 Y105.600 E4.32607 F1800.000
G1 X88.325 Y94.400 E4.47236
G1 X93.675 Y94.400 E4.54224
G1 X93.675 Y105.540 E4.68774
G1 X93.675 Y106.000 F12000.000
G1 X94.288 Y109.086 F12000.000
G1 X90.917 Y115.576 E4.78326 F1800.000
G1 X89.787 Y115.576 E4.79801
G1 X89.366 Y115.505 E4.80359
G1 X88.962 Y115.367 E4.80916
G1 X88.586 Y115.164 E4.81474
G1 X88.250 Y114.901 E4.82031
G1 X87.961 Y114.587 E4.82589
G1 X87.727 Y114.230 E4.83147
G1 X87.556 Y113.839 E4.83704
G1 X87.451 Y113.425 E4.84261
G1 X87.414 Y112.983 E4.84841
G1 X87.414 Y87.017 E5.18756
G1 X87.451 Y86.575 E5.19336
G1 X87.556 Y86.161 E5.19893
G1 X87.727 Y85.770 E5.20451
G1 X87.961 Y85.413 E5.21008
G1 X88.248 Y85.100 E5.21563
G1 X88.587 Y84.836 E5.22124
G1 X88.962 Y84.633 E5.22681
G1 X89.366 Y84.495 E5.23238
G1 X89.787 Y84.424 E5.23796
G1 X90.916 Y84.424 E5.25271
G1 X94.288 Y90.914 E5.34823
G1 X115.712 Y90.914 E5.62807
G1 X119.083 Y84.424 E5.72359
G1 X130.917 Y84.424 E5.87814
G1 X134.288 Y90.914 E5.97366
G1 X155.712 Y90.914 E6.25349
G1 X159.083 Y84.424 E6.34901
G1 X160.213 Y84.424 E6.36377
G1 X160.634 Y84.495 E6.36935
G1 X161.038 Y84.633 E6.37492
G1 X161.414 Y84.836 E6.38050
G1 X161.750 Y85.099 E6.38607
G1 X162.039 Y85.413 E6.39165
G1 X162.273 Y85.770 E6.39722
G1 X162.444 Y86.161 E6.40280
G1 X162.549 Y86.575 E6.40837
G1 X162.586 Y87.017 E6.41417
G1 X162.586 Y112.983 E6.75332
G1 X162.549 Y113.425 E6.75911
G1 X162.444 Y113.839 E6.76469
G1 X162.273 Y114.230 E6.77026
G1 X162.039 Y114.587 E6.77584
G1 X161.752 Y114.900 E6.78138
G1 X161.413 Y115.164 E6.78699
G1 X161.038 Y115.367 E6.79256
G1 X160.634 Y115.505 E6.79814
G1 X160.213 Y115.576 E6.80372
G1 X159.083 Y115.576 E6.81847
G1 X155.712 Y109.086 E6.91399
G1 X134.288 Y109.086 E7.19383
G1 X130.917 Y115.576 E7.28934
G1 X119.083 Y115.576 E7.44390
G1 X115.712 Y109.086 E7.53942
G1 X94.348 Y109.086 E7.81847
G1 X94.383 Y109.243 F12000.000
G1 X91.012 Y115.733 E7.91399 F1800.000
G1 X89.774 Y115.733 E7.93016
G1 X89.327 Y115.658 E7.93608
G1 X88.899 Y115.511 E7.94199
G1 X88.500 Y115.296 E7.94791
G1 X88.143 Y115.017 E7.95382
G1 X87.836 Y114.684 E7.95974
G1 X87.588 Y114.305 E7.96565
G1 X87.406 Y113.890 E7.97157
G1 X87.295 Y113.451 E7.97748
G1 X87.257 Y112.989 E7.98354
G1 X87.257 Y87.011 E8.32285
G1 X87.295 Y86.549 E8.32890
G1 X87.406 Y86.110 E8.33482
G1 X87.588 Y85.695 E8.34073
G1 X87.836 Y85.316 E8.34665
G1 X88.141 Y84.984 E8.35253
G1 X88.500 Y84.704 E8.35848
G1 X88.899 Y84.489 E8.36439
G1 X89.327 Y84.342 E8.37031
G1 X89.774 Y84.267 E8.37622
G1 X91.012 Y84.267 E8.39240
G1 X94.383 Y90.757 E8.48792
G1 X115.617 Y90.757 E8.76526
G1 X118.988 Y84.267 E8.86078
G1 X131.012 Y84.267 E9.01782
G1 X134.383 Y90.757 E9.11334
G1 X155.617 Y90.757 E9.39068
G1 X158.988 Y84.267 E9.48620
G1 X160.226 Y84.267 E9.50238
G1 X160.673 Y84.342 E9.50829
G1 X161.101 Y84.489 E9.51421
G1 X161.500 Y84.704 E9.52012
G1 X161.857 Y84.983 E9.52604
G1 X162.164 Y85.316 E9.53195
G1 X162.412 Y85.695 E9.53787
G1 X162.594 Y86.110 E9.54378
G1 X162.705 Y86.549 E9.54970
G1 X162.743 Y87.011 E9.55575
G1 X162.743 Y112.989 E9.89507
G1 X162.705 Y113.451 E9.90112
G1 X162.594 Y113.890 E9.90703
G1 X162.412 Y114.305 E9.91295
G1 X162.164 Y114.684 E9.91886
G1 X161.859 Y115.016 E9.92475
G1 X161.500 Y115.296 E9.93070
G1 X161.101 Y115.511 E9.93661
G1 X160.673 Y115.658 E9.94252
G1 X160.226 Y115.733 E9.94844
G1 X158.988 Y115.733 E9.96461
G1 X155.617 Y109.243 E10.06013
G1 X134.383 Y109.243 E10.33747
G1 X131.012 Y115.733 E10.43299
G1 X118.988 Y115.733 E10.59004
G1 X115.617 Y109.243 E10.68556
G1 X94.443 Y109.243 E10.96212
G1 X94.478 Y109.400 F12000.000
G1 X91.107 Y115.890 E11.05763 F1800.000
G1 X89.761 Y115.890 E11.07523
G1 X89.288 Y115.811 E11.08148
G1 X88.835 Y115.655 E11.08774
G1 X88.414 Y115.427 E11.09399
G1 X88.036 Y115.133 E11.10025
G1 X87.712 Y114.781 E11.10650
G1 X87.450 Y114.380 E11.11276
G1 X87.257 Y113.942 E11.11901
G1 X87.140 Y113.477 E11.12527
G1 X87.100 Y112.996 E11.13158
G1 X87.100 Y87.004 E11.47106
G1 X87.140 Y86.523 E11.47737
G1 X87.257 Y86.058 E11.48362
G1 X87.450 Y85.620 E11.48988
G1 X87.712 Y85.219 E11.49613
G1 X88.034 Y84.869 E11.50236
G1 X88.414 Y84.572 E11.50864
G1 X88.835 Y84.345 E11.51490
G1 X89.288 Y84.189 E11.52115
G1 X89.761 Y84.110 E11.52741
G1 X91.107 Y84.110 E11.54500
G1 X94.478 Y90.600 E11.64052
G1 X115.522 Y90.600 E11.91537
G1 X118.893 Y84.110 E12.01088
G1 X131.107 Y84.110 E12.17042
G1 X134.478 Y90.600 E12.26594
G1 X155.522 Y90.600 E12.54079
G1 X158.893 Y84.110 E12.63631
G1 X160.239 Y84.110 E12.65390
G1 X160.712 Y84.189 E12.66016
G1 X161.165 Y84.345 E12.66641
G1 X161.586 Y84.573 E12.67267
G1 X161.964 Y84.867 E12.67892
G1 X162.288 Y85.219 E12.68518
G1 X162.550 Y85.620 E12.69143
G1 X162.743 Y86.058 E12.69769
G1 X162.860 Y86.523 E12.70394
G1 X162.900 Y87.004 E12.71025
G1 X162.900 Y112.996 E13.04973
G1 X162.860 Y113.477 E13.05604
G1 X162.743 Y113.942 E13.06230
G1 X162.550 Y114.380 E13.06855
G1 X162.288 Y114.781 E13.07481
G1 X161.966 Y115.131 E13.08103
G1 X161.586 Y115.428 E13.08732
G1 X161.165 Y115.655 E13.09357
G1 X160.712 Y115.811 E13.09983
G1 X160.239 Y115.890 E13.10608
G1 X158.893 Y115.890 E13.12368
G1 X155.522 Y109.400 E13.21919
G1 X134.478 Y109.400 E13.49404
G1 X131.107 Y115.890 E13.58956
G1 X118.893 Y115.890 E13.74910
G1 X115.522 Y109.400 E13.84462
G1 X94.538 Y109.400 E14.11868
G1 X94.099 Y109.274 F12000.000
G1 X94.325 Y109.006 F12000.000
G1 X91.313 Y105.994 E14.17435 F1800.000
G1 X91.536 Y105.994 E14.17725
G1 X94.547 Y109.006 E14.23292
G1 X94.769 Y109.006 E14.23582
G1 X91.758 Y105.994 E14.29148
G1 X91.980 Y105.994 E14.29439
G1 X94.992 Y109.006 E14.35005
G1 X95.214 Y109.006 E14.35296
G1 X92.203 Y105.994 E14.40862
G1 X92.425 Y105.994 E14.41153
G1 X95.436 Y109.006 E14.46719
G1 X95.659 Y109.006 E14.47009
G1 X92.647 Y105.994 E14.52576
G1 X92.869 Y105.994 E14.52866
G1 X95.881 Y109.006 E14.58433
G1 X96.103 Y109.006 E14.58723
G1 X93.092 Y105.994 E14.64289
G1 X93.314 Y105.994 E14.64580
G1 X96.325 Y109.006 E14.70146
G1 X96.548 Y109.006 E14.70437
G1 X93.536 Y105.994 E14.76003
G1 X93.759 Y105.994 E14.76294
G1 X96.770 Y109.006 E14.81860
G1 X96.992 Y109.006 E14.82150
G1 X93.981 Y105.994 E14.87717
G1 X94.069 Y105.860 F12000.000
G1 X97.215 Y109.006 E14.93531 F1800.000
G1 X97.437 Y109.006 E14.93821
G1 X94.069 Y105.638 E15.00046
G1 X94.069 Y105.416 E15.00336
G1 X97.659 Y109.006 E15.06972
G1 X97.882 Y109.006 E15.07263
G1 X94.069 Y105.193 E15.14309
G1 X94.069 Y104.971 E15.14600
G1 X98.104 Y109.006 E15.22057
G1 X98.326 Y109.006 E15.22348
G1 X94.069 Y104.749 E15.30216
G1 X94.069 Y104.527 E15.30507
G1 X98.548 Y109.006 E15.38786
G1 X98.771 Y109.006 E15.39077
G1 X94.069 Y104.304 E15.47767
G1 X94.069 Y104.082 E15.48058
G1 X98.993 Y109.006 E15.57159
G1 X99.215 Y109.006 E15.57449
G1 X94.069 Y103.860 E15.66961
G1 X94.069 Y103.637 E15.67252
G1 X99.438 Y109.006 E15.77175
G1 X99.660 Y109.006 E15.77465
G1 X94.069 Y103.415 E15.87799
G1 X94.069 Y103.193 E15.88090
G1 X99.882 Y109.006 E15.98835
G1 X100.105 Y109.006 E15.99125
G1 X94.069 Y102.970 E16.10281
G1 X94.069 Y102.748 E16.10572
G1 X100.327 Y109.006 E16.22138
G1 X100.549 Y109.006 E16.22429
G1 X94.069 Y102.526 E16.34406
G1 X94.069 Y102.304 E16.34697
G1 X100.771 Y109.006 E16.47085
G1 X100.994 Y109.006 E16.47376
G1 X94.069 Y102.081 E16.60175
G1 X94.069 Y101.859 E16.60466
G1 X101.216 Y109.006 E16.73676
G1 X101.438 Y109.006 E16.73967
G1 X94.069 Y101.637 E16.87588
G1 X94.069 Y101.414 E16.87878
G1 X101.661 Y109.006 E17.01910
G1 X101.883 Y109.006 E17.02201
G1 X94.069 Y101.192 E17.16644
G1 X94.069 Y100.970 E17.16934
G1 X102.105 Y109.006 E17.31788
G1 X102.328 Y109.006 E17.32079
G1 X94.069 Y100.747 E17.47344
G1 X94.069 Y100.525 E17.47634
G1 X102.550 Y109.006 E17.63310
G1 X102.772 Y109.006 E17.63601
G1 X94.069 Y100.303 E17.79687
G1 X94.069 Y100.081 E17.79978
G1 X102.994 Y109.006 E17.96475
G1 X103.217 Y109.006 E17.96766
G1 X94.069 Y99.858 E18.13674
G1 X94.069 Y99.636 E18.13965
G1 X103.439 Y109.006 E18.31284
G1 X103.661 Y109.006 E18.31575
G1 X94.069 Y99.414 E18.49305
G1 X94.069 Y99.191 E18.49596
G1 X103.884 Y109.006 E18.67737
G1 X104.106 Y109.006 E18.68027
G1 X94.069 Y98.969 E18.86580
G1 X94.069 Y98.747 E18.86870
G1 X104.328 Y109.006 E19.05833
G1 X104.551 Y109.006 E19.06124
G1 X94.069 Y98.524 E19.25498
G1 X94.069 Y98.302 E19.25788
G1 X104.773 Y109.006 E19.45573
G1 X104.995 Y109.006 E19.45864
G1 X94.069 Y98.080 E19.66059
G1 X94.069 Y97.858 E19.66350
G1 X105.217 Y109.006 E19.86957
G1 X105.440 Y109.006 E19.87247
G1 X94.069 Y97.635 E20.08265
G1 X94.069 Y97.413 E20.08555
G1 X105.662 Y109.006 E20.29984
G1 X105.884 Y109.006 E20.30274
G1 X94.069 Y97.191 E20.52114
G1 X94.069 Y96.968 E20.52404
G1 X106.107 Y109.006 E20.74654
G1 X106.329 Y109.006 E20.74945
G1 X94.069 Y96.746 E20.97606
G1 X94.069 Y96.524 E20.97897
G1 X106.551 Y109.006 E21.20969
G1 X106.774 Y109.006 E21.21260
G1 X94.069 Y96.301 E21.44743
G1 X94.069 Y96.079 E21.45033
G1 X106.996 Y109.006 E21.68927
G1 X107.218 Y109.006 E21.69218
G1 X94.069 Y95.857 E21.93522
G1 X94.069 Y95.635 E21.93813
G1 X107.440 Y109.006 E22.18529
G1 X107.663 Y109.006 E22.18819
G1 X94.069 Y95.412 E22.43946
G1 X94.069 Y95.190 E22.44237
G1 X107.885 Y109.006 E22.69774
G1 X108.107 Y109.006 E22.70065
G1 X94.069 Y94.968 E22.96013
G1 X94.069 Y94.745 E22.96304
G1 X108.330 Y109.006 E23.22663
G1 X108.552 Y109.006 E23.22954
G1 X94.069 Y94.523 E23.49724
G1 X94.069 Y94.301 E23.50015
G1 X108.774 Y109.006 E23.77196
G1 X115.666 Y109.006 F12000.000
G1 X97.654 Y90.994 E24.10489 F1800.000
G1 X97.432 Y90.994 E24.10779
G1 X115.443 Y109.006 E24.44072
G1 X115.221 Y109.006 E24.44363
G1 X97.210 Y90.994 E24.77656
G1 X96.987 Y90.994 E24.77946
G1 X114.999 Y109.006 E25.11239
G1 X114.776 Y109.006 E25.11530
G1 X96.765 Y90.994 E25.44823
G1 X96.543 Y90.994 E25.45113
G1 X114.554 Y109.006 E25.78406
G1 X114.332 Y109.006 E25.78697
G1 X96.320 Y90.994 E26.11989
G1 X96.098 Y90.994 E26.12280
G1 X114.110 Y109.006 E26.45573
G1 X113.887 Y109.006 E26.45863
G1 X95.876 Y90.994 E26.79156
G1 X95.654 Y90.994 E26.79447
G1 X113.665 Y109.006 E27.12740
G1 X113.443 Y109.006 E27.13030
G1 X95.431 Y90.994 E27.46323
G1 X95.209 Y90.994 E27.46614
G1 X113.220 Y109.006 E27.79907
G1 X112.998 Y109.006 E27.80197
G1 X94.987 Y90.994 E28.13490
G1 X94.764 Y90.994 E28.13781
G1 X112.776 Y109.006 E28.47074
G1 X112.553 Y109.006 E28.47364
G1 X94.542 Y90.994 E28.80657
G1 X94.320 Y90.994 E28.80948
G1 X112.331 Y109.006 E29.14241
G1 X112.109 Y109.006 E29.14531
G1 X88.287 Y85.184 E29.58564
G1 X88.398 Y85.073 E29.58770
G1 X94.107 Y90.781 E29.69322
G1 X93.866 Y90.319 F12000.000
G1 X88.520 Y84.973 E29.79203 F1800.000
G1 X88.650 Y84.880 E29.79412
G1 X93.626 Y89.856 E29.88610
G1 X93.386 Y89.393 F12000.000
G1 X88.794 Y84.802 E29.97097 F1800.000
G1 X88.938 Y84.724 E29.97312
G1 X93.145 Y88.931 E30.05088
G1 X92.905 Y88.468 F12000.000
G1 X89.099 Y84.662 E30.12125 F1800.000
G1 X89.264 Y84.605 E30.12353
G1 X92.665 Y88.006 E30.18640
G1 X92.424 Y87.543 F12000.000
G1 X89.440 Y84.558 E30.24156 F1800.000
G1 X89.630 Y84.527 E30.24409
G1 X92.184 Y87.080 E30.29129
G1 X91.944 Y86.618 F12000.000
G1 X89.831 Y84.505 E30.33035 F1800.000
G1 X90.053 Y84.505 E30.33326
G1 X91.704 Y86.155 E30.36377
G1 X91.463 Y85.692 F12000.000
G1 X90.275 Y84.505 E30.38572 F1800.000
G1 X90.498 Y84.505 E30.38863
G1 X91.223 Y85.230 E30.40204
G1 X90.983 Y84.767 F12000.000
G1 X90.720 Y84.505 E30.40689 F1800.000
G1 X88.176 Y85.295 F12000.000
G1 X111.886 Y109.006 E30.84517 F1800.000
G1 X111.664 Y109.006 E30.84807
G1 X88.065 Y85.406 E31.28430
G1 X87.965 Y85.529 E31.28636
G1 X111.442 Y109.006 E31.72032
G1 X111.220 Y109.006 E31.72322
G1 X87.877 Y85.663 E32.15469
G1 X87.790 Y85.799 E32.15680
G1 X110.997 Y109.006 E32.58576
G1 X110.775 Y109.006 E32.58867
G1 X87.723 Y85.953 E33.01478
G1 X87.655 Y86.108 E33.01698
G1 X110.553 Y109.006 E33.44023
G1 X110.330 Y109.006 E33.44314
G1 X87.602 Y86.277 E33.86327
G1 X87.557 Y86.454 E33.86566
G1 X110.108 Y109.006 E34.28251
G1 X109.886 Y109.006 E34.28542
G1 X87.523 Y86.643 E34.69878
G1 X87.506 Y86.848 E34.70147
G1 X109.663 Y109.006 E35.11104
G1 X109.441 Y109.006 E35.11395
G1 X87.494 Y87.059 E35.51962
G1 X87.494 Y87.281 E35.52253
G1 X109.219 Y109.006 E35.92409
G1 X108.997 Y109.006 E35.92700
G1 X94.069 Y94.078 E36.20292
G1 X93.997 Y94.006 F12000.000
G1 X87.494 Y87.503 E36.32311 F1800.000
