; generated by Slic3r 1.2.9 on 2016-05-18 at 23:27:55

; external perimeters extrusion width = 0.40mm
; perimeters extrusion width = 0.48mm
; infill extrusion width = 0.48mm
; solid infill extrusion width = 0.48mm
; top infill extrusion width = 0.48mm

M107
M104 S250 ; set temperature
G28 ; home all axes
G1 Z5 F5000 ; lift nozzle
M140 S120 ; set bed temperature

M109 S250 ; wait for temperature to be reached
G21 ; set units to millimeters
G90 ; use absolute coordinates
M82 ; use absolute distances for extrusion
G92 E0
G1 E-2.00000 F2400.00000
G92 E0
G1 Z1.000 F12000.000
G1 X39.732 Y74.103 F12000.000
G1 Z0.400 F12000.000
G1 E2.00000 F2400.00000
G1 X42.500 Y73.486 E2.24813 F2400.000
G1 X225.000 Y73.486 E18.21569
G1 X227.239 Y73.883 E18.41466
G1 X229.205 Y75.025 E18.61362 F2400.000
G1 X230.659 Y76.774 E18.81259
G1 X231.514 Y80.000 E19.10459
G1 X231.514 Y120.000 E22.60433
G1 X231.117 Y122.239 E22.80330
G1 X229.975 Y124.205 E23.00226
G1 X228.226 Y125.659 E23.20123
G1 X225.000 Y126.514 E23.49324
G1 X42.500 Y126.514 E39.46079
G1 X40.261 Y126.117 E39.65976
G1 X37.874 Y124.586 E39.90789
G1 X22.043 Y108.617 E41.87529
G1 X21.634 Y108.163 E41.92872
G1 X20.925 Y107.299 E42.02649
G1 X20.216 Y106.237 E42.13824
G1 X19.689 Y105.252 E42.23601
G1 X19.200 Y104.072 E42.34775
G1 X18.876 Y103.003 E42.44552
G1 X18.627 Y101.751 E42.55718
G1 X18.517 Y100.638 E42.65499
G1 X18.517 Y99.361 E42.76674
G1 X18.627 Y98.249 E42.86452
G1 X18.876 Y96.997 E42.97617
G1 X19.200 Y95.928 E43.07393
G1 X19.689 Y94.748 E43.18568
G1 X20.216 Y93.763 E43.28344
G1 X20.925 Y92.701 E43.39520
G1 X21.634 Y91.837 E43.49297
G1 X22.043 Y91.383 E43.54640
G1 X37.874 Y75.414 E45.51379
G1 X39.683 Y74.138 E45.70751
G1 E43.70751 F2400.00000
G92 E0
G1 Z1.400 F12000.000
G1 X42.181 Y79.229 F12000.000
G1 Z0.400 F12000.000
G1 E2.00000 F2400.00000
G1 X47.719 Y79.229 E2.48462 F2400.000
G1 X47.987 Y79.496 E2.51773
G1 X48.413 Y79.496 E2.55499 F2400.000
G1 X48.681 Y79.229 E2.58810
G1 X50.919 Y79.229 E2.78399
G1 X51.187 Y79.496 E2.81710
G1 X51.613 Y79.496 E2.85437
G1 X51.881 Y79.229 E2.88747
G1 X54.119 Y79.229 E3.08337
G1 X54.387 Y79.496 E3.11647
G1 X54.813 Y79.496 E3.15374
G1 X55.081 Y79.229 E3.18685
G1 X57.319 Y79.229 E3.38274
G1 X57.587 Y79.496 E3.41585
G1 X58.013 Y79.496 E3.45311
G1 X58.281 Y79.229 E3.48622
G1 X60.519 Y79.229 E3.68211
G1 X60.787 Y79.496 E3.71522
G1 X61.213 Y79.496 E3.75249
G1 X61.481 Y79.229 E3.78559
G1 X63.719 Y79.229 E3.98148
G1 X63.987 Y79.496 E4.01459
G1 X64.413 Y79.496 E4.05186
G1 X64.681 Y79.229 E4.08497
G1 X66.919 Y79.229 E4.28086
G1 X67.187 Y79.496 E4.31397
G1 X67.613 Y79.496 E4.35123
G1 X67.881 Y79.229 E4.38434
G1 X70.119 Y79.229 E4.58023
G1 X70.387 Y79.496 E4.61334
G1 X70.813 Y79.496 E4.65061
G1 X71.081 Y79.229 E4.68371
G1 X73.319 Y79.229 E4.87960
G1 X73.587 Y79.496 E4.91271
G1 X74.013 Y79.496 E4.94998
G1 X74.281 Y79.229 E4.98309
G1 X76.519 Y79.229 E5.17898
G1 X76.787 Y79.496 E5.21208
G1 X77.213 Y79.496 E5.24935
G1 X77.481 Y79.229 E5.28246
G1 X79.719 Y79.229 E5.47835
G1 X79.987 Y79.496 E5.51146
G1 X80.413 Y79.496 E5.54873
G1 X80.681 Y79.229 E5.58183
G1 X82.919 Y79.229 E5.77772
G1 X83.187 Y79.496 E5.81083
G1 X83.613 Y79.496 E5.84810
G1 X83.881 Y79.229 E5.88121
G1 X86.119 Y79.229 E6.07710
G1 X86.387 Y79.496 E6.11020
G1 X86.813 Y79.496 E6.14747
G1 X87.081 Y79.229 E6.18058
G1 X89.319 Y79.229 E6.37647
G1 X89.587 Y79.496 E6.40958
G1 X90.013 Y79.496 E6.44684
G1 X90.281 Y79.229 E6.47995
G1 X92.519 Y79.229 E6.67584
G1 X92.787 Y79.496 E6.70895
G1 X93.213 Y79.496 E6.74622
G1 X93.481 Y79.229 E6.77933
G1 X95.719 Y79.229 E6.97522
G1 X95.987 Y79.496 E7.00832
G1 X96.413 Y79.496 E7.04559
G1 X96.681 Y79.229 E7.07870
G1 X98.919 Y79.229 E7.27459
G1 X99.187 Y79.496 E7.30770
G1 X99.613 Y79.496 E7.34496
G1 X99.881 Y79.229 E7.37807
G1 X102.119 Y79.229 E7.57396
G1 X102.387 Y79.496 E7.60707
G1 X102.813 Y79.496 E7.64434
G1 X103.081 Y79.229 E7.67744
G1 X105.319 Y79.229 E7.87334
G1 X105.587 Y79.496 E7.90644
G1 X106.013 Y79.496 E7.94371
G1 X106.281 Y79.229 E7.97682
G1 X108.519 Y79.229 E8.17271
G1 X108.787 Y79.496 E8.20582
G1 X109.213 Y79.496 E8.24308
G1 X109.481 Y79.229 E8.27619
G1 X111.719 Y79.229 E8.47208
G1 X111.987 Y79.496 E8.50519
G1 X112.413 Y79.496 E8.54246
G1 X112.681 Y79.229 E8.57556
G1 X114.919 Y79.229 E8.77145
G1 X115.187 Y79.496 E8.80456
G1 X115.613 Y79.496 E8.84183
G1 X115.881 Y79.229 E8.87494
G1 X118.119 Y79.229 E9.07083
G1 X118.387 Y79.496 E9.10394
G1 X118.813 Y79.496 E9.14120
G1 X119.081 Y79.229 E9.17431
G1 X121.319 Y79.229 E9.37020
G1 X121.587 Y79.496 E9.40331
G1 X122.013 Y79.496 E9.44058
G1 X122.281 Y79.229 E9.47369
G1 X124.519 Y79.229 E9.66958
G1 X124.787 Y79.496 E9.70268
G1 X125.213 Y79.496 E9.73995
G1 X125.481 Y79.229 E9.77306
G1 X127.719 Y79.229 E9.96895
G1 X127.987 Y79.496 E10.00206
G1 X128.413 Y79.496 E10.03932
G1 X128.681 Y79.229 E10.07243
G1 X130.919 Y79.229 E10.26832
G1 X131.187 Y79.496 E10.30143
G1 X131.613 Y79.496 E10.33870
G1 X131.881 Y79.229 E10.37181
G1 X134.119 Y79.229 E10.56770
G1 X134.387 Y79.496 E10.60080
G1 X134.813 Y79.496 E10.63807
G1 X135.081 Y79.229 E10.67118
G1 X137.319 Y79.229 E10.86707
G1 X137.587 Y79.496 E10.90017
G1 X138.013 Y79.496 E10.93744
G1 X138.281 Y79.229 E10.97055
G1 X140.519 Y79.229 E11.16644
G1 X140.787 Y79.496 E11.19955
G1 X141.213 Y79.496 E11.23681
G1 X141.481 Y79.229 E11.26992
G1 X143.719 Y79.229 E11.46581
G1 X143.987 Y79.496 E11.49892
G1 X144.413 Y79.496 E11.53619
G1 X144.681 Y79.229 E11.56930
G1 X146.919 Y79.229 E11.76519
G1 X147.187 Y79.496 E11.79829
G1 X147.613 Y79.496 E11.83556
G1 X147.881 Y79.229 E11.86867
G1 X150.119 Y79.229 E12.06456
G1 X150.387 Y79.496 E12.09767
G1 X150.813 Y79.496 E12.13493
G1 X151.081 Y79.229 E12.16804
G1 X153.319 Y79.229 E12.36393
G1 X153.587 Y79.496 E12.39704
G1 X154.013 Y79.496 E12.43431
G1 X154.281 Y79.229 E12.46742
G1 X156.519 Y79.229 E12.66331
G1 X156.787 Y79.496 E12.69641
G1 X157.213 Y79.496 E12.73368
G1 X157.481 Y79.229 E12.76679
G1 X159.719 Y79.229 E12.96268
G1 X159.987 Y79.496 E12.99579
G1 X160.413 Y79.496 E13.03305
G1 X160.681 Y79.229 E13.06616
G1 X162.919 Y79.229 E13.26205
G1 X163.187 Y79.496 E13.29516
G1 X163.613 Y79.496 E13.33243
G1 X163.881 Y79.229 E13.36553
G1 X166.119 Y79.229 E13.56143
G1 X166.387 Y79.496 E13.59453
G1 X166.813 Y79.496 E13.63180
G1 X167.081 Y79.229 E13.66491
G1 X169.319 Y79.229 E13.86080
G1 X169.587 Y79.496 E13.89391
G1 X170.013 Y79.496 E13.93117
G1 X170.281 Y79.229 E13.96428
G1 X172.519 Y79.229 E14.16017
G1 X172.787 Y79.496 E14.19328
G1 X173.213 Y79.496 E14.23055
G1 X173.481 Y79.229 E14.26365
G1 X175.719 Y79.229 E14.45954
G1 X175.987 Y79.496 E14.49265
G1 X176.413 Y79.496 E14.52992
G1 X176.681 Y79.229 E14.56303
G1 X178.919 Y79.229 E14.75892
G1 X179.187 Y79.496 E14.79203
G1 X179.613 Y79.496 E14.82929
G1 X179.881 Y79.229 E14.86240
G1 X182.119 Y79.229 E15.05829
G1 X182.387 Y79.496 E15.09140
G1 X182.813 Y79.496 E15.12867
G1 X183.081 Y79.229 E15.16177
G1 X185.319 Y79.229 E15.35766
G1 X185.587 Y79.496 E15.39077
G1 X186.013 Y79.496 E15.42804
G1 X186.281 Y79.229 E15.46115
G1 X188.519 Y79.229 E15.65704
G1 X188.787 Y79.496 E15.69014
G1 X189.213 Y79.496 E15.72741
G1 X189.481 Y79.229 E15.76052
G1 X191.719 Y79.229 E15.95641
G1 X191.987 Y79.496 E15.98952
G1 X192.413 Y79.496 E16.02679
G1 X192.681 Y79.229 E16.05989
G1 X194.919 Y79.229 E16.25578
G1 X195.187 Y79.496 E16.28889
G1 X195.613 Y79.496 E16.32616
G1 X195.881 Y79.229 E16.35927
G1 X198.119 Y79.229 E16.55516
G1 X198.387 Y79.496 E16.58826
G1 X198.813 Y79.496 E16.62553
G1 X199.081 Y79.229 E16.65864
G1 X201.319 Y79.229 E16.85453
G1 X201.587 Y79.496 E16.88764
G1 X202.013 Y79.496 E16.92490
G1 X202.281 Y79.229 E16.95801
G1 X225.319 Y79.229 E18.97377
G1 X225.771 Y79.681 E19.02967
G1 X225.771 Y97.169 E20.55983
G1 X225.319 Y97.621 E20.61573
G1 X219.012 Y97.621 E21.16760
G1 X218.646 Y97.402 E21.20495
G1 X218.378 Y96.911 E21.25389
G1 X217.687 Y96.077 E21.34861
G1 X216.889 Y95.422 E21.43893
G1 X215.937 Y94.908 E21.53366
G1 X214.853 Y94.579 E21.63277
G1 X213.825 Y94.477 E21.72310
G1 X212.747 Y94.579 E21.81782
G1 X211.710 Y94.888 E21.91254
G1 X210.753 Y95.394 E22.00726
G1 X209.913 Y96.077 E22.10199
G1 X209.222 Y96.911 E22.19671
G1 X208.708 Y97.863 E22.29143
G1 X208.388 Y98.898 E22.38615
G1 X208.277 Y100.025 E22.48527
G1 X208.379 Y101.053 E22.57559
G1 X208.688 Y102.090 E22.67031
G1 X209.194 Y103.047 E22.76504
G1 X209.877 Y103.887 E22.85976
G1 X210.753 Y104.606 E22.95888
G1 X211.710 Y105.112 E23.05360
G1 X212.747 Y105.421 E23.14832
G1 X213.775 Y105.523 E23.23865
G1 X214.853 Y105.421 E23.33337
G1 X215.937 Y105.092 E23.43249
G1 X216.847 Y104.606 E23.52281
G1 X217.687 Y103.923 E23.61753
G1 X218.378 Y103.089 E23.71225
G1 X218.646 Y102.598 E23.76121
G1 X219.012 Y102.379 E23.79855
G1 X225.319 Y102.379 E24.35040
G1 X225.771 Y102.831 E24.40631
G1 X225.771 Y120.319 E25.93647
G1 X225.319 Y120.771 E25.99237
G1 X202.281 Y120.771 E28.00813
G1 X202.013 Y120.504 E28.04124
G1 X201.587 Y120.504 E28.07850
G1 X201.319 Y120.771 E28.11161
G1 X199.081 Y120.771 E28.30750
G1 X198.813 Y120.504 E28.34061
G1 X198.387 Y120.504 E28.37788
G1 X198.119 Y120.771 E28.41098
G1 X195.881 Y120.771 E28.60687
G1 X195.613 Y120.504 E28.63998
G1 X195.187 Y120.504 E28.67725
G1 X194.919 Y120.771 E28.71036
G1 X192.681 Y120.771 E28.90625
G1 X192.413 Y120.504 E28.93935
G1 X191.987 Y120.504 E28.97662
G1 X191.719 Y120.771 E29.00973
G1 X189.481 Y120.771 E29.20562
G1 X189.213 Y120.504 E29.23873
G1 X188.787 Y120.504 E29.27600
G1 X188.519 Y120.771 E29.30910
G1 X186.281 Y120.771 E29.50499
G1 X186.013 Y120.504 E29.53810
G1 X185.587 Y120.504 E29.57537
G1 X185.319 Y120.771 E29.60848
G1 X183.081 Y120.771 E29.80437
G1 X182.813 Y120.504 E29.83747
G1 X182.387 Y120.504 E29.87474
G1 X182.119 Y120.771 E29.90785
G1 X179.881 Y120.771 E30.10374
G1 X179.613 Y120.504 E30.13685
G1 X179.187 Y120.504 E30.17411
G1 X178.919 Y120.771 E30.20722
G1 X176.681 Y120.771 E30.40311
G1 X176.413 Y120.504 E30.43622
G1 X175.987 Y120.504 E30.47349
G1 X175.719 Y120.771 E30.50660
G1 X173.481 Y120.771 E30.70249
G1 X173.213 Y120.504 E30.73559
G1 X172.787 Y120.504 E30.77286
G1 X172.519 Y120.771 E30.80597
G1 X170.281 Y120.771 E31.00186
G1 X170.013 Y120.504 E31.03497
G1 X169.587 Y120.504 E31.07223
G1 X169.319 Y120.771 E31.10534
G1 X167.081 Y120.771 E31.30123
G1 X166.813 Y120.504 E31.33434
G1 X166.387 Y120.504 E31.37161
G1 X166.119 Y120.771 E31.40471
G1 X163.881 Y120.771 E31.60061
G1 X163.613 Y120.504 E31.63371
G1 X163.187 Y120.504 E31.67098
G1 X162.919 Y120.771 E31.70409
G1 X160.681 Y120.771 E31.89998
G1 X160.413 Y120.504 E31.93309
G1 X159.987 Y120.504 E31.97035
G1 X159.719 Y120.771 E32.00346
G1 X157.481 Y120.771 E32.19935
G1 X157.213 Y120.504 E32.23246
G1 X156.787 Y120.504 E32.26973
G1 X156.519 Y120.771 E32.30283
G1 X154.281 Y120.771 E32.49872
G1 X154.013 Y120.504 E32.53183
G1 X153.587 Y120.504 E32.56910
G1 X153.319 Y120.771 E32.60221
G1 X151.081 Y120.771 E32.79810
G1 X150.813 Y120.504 E32.83121
G1 X150.387 Y120.504 E32.86847
G1 X150.119 Y120.771 E32.90158
G1 X147.881 Y120.771 E33.09747
G1 X147.613 Y120.504 E33.13058
G1 X147.187 Y120.504 E33.16785
G1 X146.919 Y120.771 E33.20095
G1 X144.681 Y120.771 E33.39684
G1 X144.413 Y120.504 E33.42995
G1 X143.987 Y120.504 E33.46722
G1 X143.719 Y120.771 E33.50033
G1 X141.481 Y120.771 E33.69622
G1 X141.213 Y120.504 E33.72933
G1 X140.787 Y120.504 E33.76659
G1 X140.519 Y120.771 E33.79970
G1 X138.281 Y120.771 E33.99559
G1 X138.013 Y120.504 E34.02870
G1 X137.587 Y120.504 E34.06597
G1 X137.319 Y120.771 E34.09907
G1 X135.081 Y120.771 E34.29496
G1 X134.813 Y120.504 E34.32807
G1 X134.387 Y120.504 E34.36534
G1 X134.119 Y120.771 E34.39844
G1 X131.881 Y120.771 E34.59433
G1 X131.613 Y120.504 E34.62744
G1 X131.187 Y120.504 E34.66471
G1 X130.919 Y120.771 E34.69782
G1 X128.681 Y120.771 E34.89371
G1 X128.413 Y120.504 E34.92682
G1 X127.987 Y120.504 E34.96408
G1 X127.719 Y120.771 E34.99719
G1 X125.481 Y120.771 E35.19308
G1 X125.213 Y120.504 E35.22619
G1 X124.787 Y120.504 E35.26346
G1 X124.519 Y120.771 E35.29656
G1 X122.281 Y120.771 E35.49245
G1 X122.013 Y120.504 E35.52556
G1 X121.587 Y120.504 E35.56283
G1 X121.319 Y120.771 E35.59594
G1 X119.081 Y120.771 E35.79183
G1 X118.813 Y120.504 E35.82494
G1 X118.387 Y120.504 E35.86220
G1 X118.119 Y120.771 E35.89531
G1 X115.881 Y120.771 E36.09120
G1 X115.613 Y120.504 E36.12431
G1 X115.187 Y120.504 E36.16158
G1 X114.919 Y120.771 E36.19469
G1 X112.681 Y120.771 E36.39058
G1 X112.413 Y120.504 E36.42368
G1 X111.987 Y120.504 E36.46095
G1 X111.719 Y120.771 E36.49406
G1 X109.481 Y120.771 E36.68995
G1 X109.213 Y120.504 E36.72306
G1 X108.787 Y120.504 E36.76032
G1 X108.519 Y120.771 E36.79343
G1 X106.281 Y120.771 E36.98932
G1 X106.013 Y120.504 E37.02243
G1 X105.587 Y120.504 E37.05970
G1 X105.319 Y120.771 E37.09280
G1 X103.081 Y120.771 E37.28870
G1 X102.813 Y120.504 E37.32180
G1 X102.387 Y120.504 E37.35907
G1 X102.119 Y120.771 E37.39218
G1 X99.881 Y120.771 E37.58807
G1 X99.613 Y120.504 E37.62118
G1 X99.187 Y120.504 E37.65844
G1 X98.919 Y120.771 E37.69155
G1 X96.681 Y120.771 E37.88744
G1 X96.413 Y120.504 E37.92055
G1 X95.987 Y120.504 E37.95782
G1 X95.719 Y120.771 E37.99092
G1 X93.481 Y120.771 E38.18681
G1 X93.213 Y120.504 E38.21992
G1 X92.787 Y120.504 E38.25719
G1 X92.519 Y120.771 E38.29030
G1 X90.281 Y120.771 E38.48619
G1 X90.013 Y120.504 E38.51930
G1 X89.587 Y120.504 E38.55656
G1 X89.319 Y120.771 E38.58967
G1 X87.081 Y120.771 E38.78556
G1 X86.813 Y120.504 E38.81867
G1 X86.387 Y120.504 E38.85594
G1 X86.119 Y120.771 E38.88904
G1 X83.881 Y120.771 E39.08493
G1 X83.613 Y120.504 E39.11804
G1 X83.187 Y120.504 E39.15531
G1 X82.919 Y120.771 E39.18842
G1 X80.681 Y120.771 E39.38431
G1 X80.413 Y120.504 E39.41741
G1 X79.987 Y120.504 E39.45468
G1 X79.719 Y120.771 E39.48779
G1 X77.481 Y120.771 E39.68368
G1 X77.213 Y120.504 E39.71679
G1 X76.787 Y120.504 E39.75406
G1 X76.519 Y120.771 E39.78716
G1 X74.281 Y120.771 E39.98305
G1 X74.013 Y120.504 E40.01616
G1 X73.587 Y120.504 E40.05343
G1 X73.319 Y120.771 E40.08654
G1 X71.081 Y120.771 E40.28243
G1 X70.813 Y120.504 E40.31553
G1 X70.387 Y120.504 E40.35280
G1 X70.119 Y120.771 E40.38591
G1 X67.881 Y120.771 E40.58180
G1 X67.613 Y120.504 E40.61491
G1 X67.187 Y120.504 E40.65217
G1 X66.919 Y120.771 E40.68528
G1 X64.681 Y120.771 E40.88117
G1 X64.413 Y120.504 E40.91428
G1 X63.987 Y120.504 E40.95155
G1 X63.719 Y120.771 E40.98466
G1 X61.481 Y120.771 E41.18055
G1 X61.213 Y120.504 E41.21365
G1 X60.787 Y120.504 E41.25092
G1 X60.519 Y120.771 E41.28403
G1 X58.281 Y120.771 E41.47992
G1 X58.013 Y120.504 E41.51303
G1 X57.587 Y120.504 E41.55029
G1 X57.319 Y120.771 E41.58340
G1 X55.081 Y120.771 E41.77929
G1 X54.813 Y120.504 E41.81240
G1 X54.387 Y120.504 E41.84967
G1 X54.119 Y120.771 E41.88277
G1 X51.881 Y120.771 E42.07867
G1 X51.613 Y120.504 E42.11177
G1 X51.187 Y120.504 E42.14904
G1 X50.919 Y120.771 E42.18215
G1 X48.681 Y120.771 E42.37804
G1 X48.413 Y120.504 E42.41115
G1 X47.987 Y120.504 E42.44841
G1 X47.719 Y120.771 E42.48152
G1 X42.181 Y120.771 E42.96614
G1 X41.729 Y120.319 E43.02204
G1 X41.729 Y103.772 E44.46980
G1 X41.428 Y103.471 E44.50707
G1 X36.315 Y103.471 E44.95439
G1 X36.106 Y103.570 E44.97459
G1 X35.249 Y104.603 E45.09201
G1 X34.327 Y105.360 E45.19640
G1 X33.211 Y105.964 E45.30740
G1 X32.000 Y106.339 E45.41840
G1 X30.738 Y106.471 E45.52939
G1 X29.400 Y106.339 E45.64698
G1 X28.189 Y105.964 E45.75798
G1 X27.073 Y105.360 E45.86896
G1 X26.151 Y104.603 E45.97336
G1 X25.340 Y103.627 E46.08436
G1 X24.707 Y102.441 E46.20195
G1 X24.346 Y101.225 E46.31294
G1 X24.229 Y100.038 E46.41734
G1 X24.346 Y98.775 E46.52834
G1 X24.707 Y97.559 E46.63932
G1 X25.340 Y96.373 E46.75692
G1 X26.097 Y95.451 E46.86131
G1 X27.073 Y94.640 E46.97231
G1 X28.189 Y94.036 E47.08330
G1 X29.400 Y93.661 E47.19430
G1 X30.738 Y93.529 E47.31189
G1 X32.000 Y93.660 E47.42288
G1 X33.211 Y94.036 E47.53387
G1 X34.327 Y94.640 E47.64487
G1 X35.249 Y95.397 E47.74927
G1 X36.106 Y96.430 E47.86669
G1 X36.315 Y96.529 E47.88689
G1 X41.428 Y96.529 E48.33421
G1 X41.729 Y96.228 E48.37148
G1 X41.729 Y79.681 E49.81924
G1 X42.138 Y79.271 E49.86989
G1 X42.394 Y79.743 F12000.000
G1 X47.506 Y79.743 E50.31724 F2400.000
G1 X47.657 Y79.894 E50.33587 F2400.000
G1 X47.657 Y89.442 E51.17128
G1 X47.958 Y89.743 E51.20855
